X:122
T: IK SACH MINEN HER VAN VALKENSTEN
N: E0062
O: Europa, Mitteleuropa, Deutschland, Westfalen, Bielefeld
R: erzaehlendes Volks - Lied, Ritter - Sage
M: 4/4
L: 1/8
K: G
d2 | d2c_BA2d2 | d2c_BA3
c | _B2A2G2G2 | F4G2
GG | A2_BBc2A2 | _B2c2d3
c | _B2A2G2G2 | F4G2

